X: 2069
Q: "Reel."
M: C
L: 1/8
K: Am
ue |\
gdec BGGB | AAeB cAA ::\
u^g |\
aee=g BGG^g |
aee^f gbaf |\
[1 gdec BGGB | AAeB cAA :|\
[2 gdec BdGB | AaeB cAA |]


